package/converter/svg/light/alien-8bit.svg

<svg xmlns="http://www.w3.org/2000/svg" viewBox="0 0 576 512"><!-- Font Awesome Pro 6.0.0-alpha2 by @fontawesome - https://fontawesome.com License - https://fontawesome.com/license (Commercial License) --><path d="M192 320H224V224H192V320ZM352 320H384V224H352V320ZM544 112H512C494.375 112 480 126.375 480 144V160H416V128H448C465.625 128 480 113.625 480 96V64C480 46.375 465.625 32 448 32H416C398.375 32 384 46.375 384 64H352C334.375 64 320 78.375 320 96V128H256V96C256 78.375 241.625 64 224 64H192C192 46.375 177.625 32 160 32H128C110.375 32 96 46.375 96 64V96C96 113.625 110.375 128 128 128H160V160H96V144C96 126.375 81.625 112 64 112H32C14.375 112 0 126.375 0 144V288C0 305.625 14.375 320 32 320H64V352C64 369.625 78.375 384 96 384H128V448C128 465.625 142.375 480 160 480H240C257.625 480 272 465.625 272 448V416C272 398.375 257.625 384 240 384H336C318.375 384 304 398.375 304 416V448C304 465.625 318.375 480 336 480H416C433.625 480 448 465.625 448 448V384H480C497.625 384 512 369.625 512 352V320H544C561.625 320 576 305.625 576 288V144C576 126.375 561.625 112 544 112ZM416 64H448V96H416V64ZM128 96V64H160V96H128ZM240 448H160V384H192V416H240V448ZM416 448H336V416H384V384H416V448ZM544 288H480V352H96V288H32V144H64V256H96V192H192V96H224V160H352V96H384V192H480V256H512V144H544V288Z"/></svg>

<svg xmlns="http://www.w3.org/2000/svg" viewBox="0 0 576 512"><!--! Font Awesome Pro 6.6.0 by @fontawesome - https://fontawesome.com License - https://fontawesome.com/license (Commercial License) Copyright 2024 Fonticons, Inc. --><path d="M128 32c-17.7 0-32 14.3-32 32l0 32c0 17.7 14.3 32 32 32l32 0 0 32-64 0 0-16c0-17.7-14.3-32-32-32l-32 0c-17.7 0-32 14.3-32 32L0 288c0 17.7 14.3 32 32 32l32 0 0 32c0 17.7 14.3 32 32 32l32 0 0 64c0 17.7 14.3 32 32 32l80 0c17.7 0 32-14.3 32-32l0-32c0-17.7-14.3-32-32-32l96 0c-17.7 0-32 14.3-32 32l0 32c0 17.7 14.3 32 32 32l80 0c17.7 0 32-14.3 32-32l0-64 32 0c17.7 0 32-14.3 32-32l0-32 32 0c17.7 0 32-14.3 32-32l0-144c0-17.7-14.3-32-32-32l-32 0c-17.7 0-32 14.3-32 32l0 16-64 0 0-32 32 0c17.7 0 32-14.3 32-32l0-32c0-17.7-14.3-32-32-32l-32 0c-17.7 0-32 14.3-32 32l-32 0c-17.7 0-32 14.3-32 32l0 32-64 0 0-32c0-17.7-14.3-32-32-32l-32 0c0-17.7-14.3-32-32-32l-32 0zM480 192l0 48c0 8.8 7.2 16 16 16s16-7.2 16-16l0-64 0-32 32 0 0 144-48 0c-8.8 0-16 7.2-16 16l0 48-48 0-64 0-160 0-64 0-48 0 0-48c0-8.8-7.2-16-16-16l-48 0 0-144 32 0 0 32 0 64c0 8.8 7.2 16 16 16s16-7.2 16-16l0-48 80 0c8.8 0 16-7.2 16-16l0-64 0-16 32 0 0 48c0 8.8 7.2 16 16 16l96 0c8.8 0 16-7.2 16-16l0-48 32 0 0 16 0 64c0 8.8 7.2 16 16 16l80 0zM128 96l0-32 32 0 0 16 0 16-32 0zm320 0l-32 0 0-16 0-16 32 0 0 32zM160 448l0-64 32 0 0 16c0 8.8 7.2 16 16 16l32 0 0 32-80 0zm224-48l0-16 32 0 0 64-80 0 0-32 32 0c8.8 0 16-7.2 16-16zM224 240c0-8.8-7.2-16-16-16s-16 7.2-16 16l0 64c0 8.8 7.2 16 16 16s16-7.2 16-16l0-64zm160 0c0-8.8-7.2-16-16-16s-16 7.2-16 16l0 64c0 8.8 7.2 16 16 16s16-7.2 16-16l0-64z"/></svg>
